web/workspace/public/assets/logos/kucoin.svg

<svg height="88" viewBox="0 0 339 88" width="339" xmlns="http://www.w3.org/2000/svg"><path d="m25.067087 43.2655841 25.7231477 25.6266156 16.2368663-16.1727484c2.8623492-2.8560922 7.5180996-2.8560922 10.3855149 0s2.8674153 7.4884115 0 10.3445036l-21.4296238 21.3450005c-2.8547501 2.8409539-7.5560955 2.8157233-10.3855149 0l-30.9108391-30.7938215v18.3072486c0 4.0192181-3.3081665 7.3168442-7.3458521 7.3168442-4.05288393 0-7.340786-3.2799648-7.340786-7.3168442v-57.3135967c0-4.0368795 3.28790207-7.31684408 7.3458521-7.31684408 4.0528839 0 7.340786 3.27996458 7.340786 7.31684408v18.3072484l30.9108391-30.79382127c2.8294194-2.81572345 7.5307648-2.843477 10.3855149 0l21.4296238 21.34500037c2.8674153 2.8510461 2.8674153 7.4858885 0 10.3445038-2.8674153 2.851046-7.5231657 2.8560921-10.3855149 0l-16.2368663-16.1727486zm25.7358128-7.3218901c4.0579502 0 7.3458521 3.2799645 7.3458521 7.3218901 0 4.0419258-3.2879019 7.3218903-7.3458521 7.3218903-4.0604829 0-7.3534512-3.2799645-7.3534512-7.3218903 0-4.0419256 3.2929683-7.3218901 7.3509182-7.3218901zm59.6483192-24.5442274c-2.487458 0-4.551895 2.0537625-4.551895 4.5313973v54.6694406c0 2.4852039 2.051772 4.5339203 4.534164 4.5339203 2.482391 0 4.534163-2.0436702 4.534163-4.5162589v-54.6770098c0-2.4902501-2.077103-4.5414895-4.559494-4.5414895zm35.361412 1.317032c-1.752872-1.7509965-4.673482-1.7509965-6.433953 0l-20.35561 20.2802734c-1.512232 1.5062607-1.309588 3.8451276-.638329 5.0006845l20.26442 34.8685465c1.220931 2.1092696 4.078214 2.9141224 6.216111 1.6652128 2.137896-1.2564787 2.91301-4.0494948 1.671814-6.1865179l-18.379828-31.6289508 17.660441-17.5856562c1.763005-1.7610887 1.763005-4.6550267 0-6.4135923zm12.427156 17.0987077c-2.487458 0-4.551896 2.0436702-4.551896 4.5162589v23.9185111c0 9.3100533 7.589025 16.8792023 16.941055 16.8792023h14.268684c2.477326 0 4.549363-2.0689008 4.549363-4.5414895v-36.2537009c0-2.4877269-2.051773-4.5263512-4.549363-4.5263512-2.487457 0-4.551895 2.0512395-4.551895 4.5263512v31.7248269h-9.726921c-4.33152 0-7.852463-3.4969469-7.852463-7.8088388v-23.9185111c0-2.4978191-2.051772-4.5414895-4.559494-4.5414895zm78.793129-13.9020038c0-2.4978192-2.064438-4.5414894-4.551895-4.5414894h-17.250088c-9.346963 0-16.92079 7.5439185-16.92079 16.8539719v29.9990606c0 9.3100534 7.599158 16.8792026 16.946121 16.8792026h17.275418c2.507722 0 4.559494-2.0689007 4.559494-4.5414894s-2.051772-4.5414895-4.559494-4.5414895h-17.277951c-4.33152 0-7.839797-3.507039-7.839797-7.821454v-29.9460769c0-4.3144148 3.51081-7.8088387 7.839797-7.8088387h17.250087c2.487458 0 4.546829-2.0512393 4.546829-4.5339202zm53.14344-4.5414894c-2.495058 0-4.549362 2.0436702-4.549362 4.5162589s2.056838 4.5162589 4.551895 4.5162589c2.482391 0 4.534165-2.0436702 4.534165-4.5414894s-2.051774-4.5414894-4.559495-4.5414894zm0 18.4182626c-2.495058 0-4.549362 2.0436704-4.549362 4.5162591v36.256224c0 2.4725887 2.056838 4.5162588 4.551895 4.5162588 2.482391 0 4.534165-2.0436701 4.534165-4.5414895v-36.1780092c0-2.4826811-2.051774-4.5313974-4.559495-4.5313974zm43.066959 45.3139725c2.487457 0 4.551895-2.0689007 4.551895-4.5414894v-23.8932805c0-9.335284-7.586493-16.8792026-16.941055-16.8792026h-14.286416c-2.48239 0-4.559495 2.0689008-4.559495 4.5162591v36.256224c0 2.4725887 2.051772 4.5162588 4.534165 4.5162588 2.482391 0 4.534162-2.0689008 4.534162-4.5414895v-31.6617504h9.701591c4.321389 0 7.832198 3.4969469 7.832198 7.8088388v23.913465c0 2.4801576 2.051774 4.5313971 4.544298 4.5313971zm-89.662458-28.4322468c0-9.2848231 7.538364-16.8716334 16.844798-16.8716334h1.132275c9.270972 0 16.76374 7.6069948 16.76374 16.8640641v11.580798c0 9.2595924-7.492768 16.853972-16.76374 16.8665871h-1.132275c-9.308968.0075693-16.844798-7.5868103-16.844798-16.871633v-11.5807983zm25.63449 0c0-4.3068461-3.495612-7.8088389-7.819533-7.8088389h-.891634c-4.321388 0-7.822066 3.507039-7.822066 7.8138848v11.573229c0 4.2891844 3.500678 7.7962236 7.822066 7.7962236h.891634c4.321388 0 7.822066-3.5070392 7.822066-7.8214543v-11.5807979z" fill="#0e75ef" transform="translate(.234375 .523062)"/></svg>

<svg width="339" height="88" viewBox="0 0 339 88" version="1.1" xmlns="http://www.w3.org/2000/svg" xmlns:xlink="http://www.w3.org/1999/xlink"><title>logo_v.1.0.a0267de6</title><desc>Created with Sketch.</desc><g id="Page-1" stroke="none" stroke-width="1" fill="none" fill-rule="evenodd"><g id="exchange-kucoin" transform="translate(-724.000000, -234.000000)" fill-rule="nonzero" fill="#0E75EF"><g id="logo_v.1.0.a0267de6" transform="translate(724.234375, 234.523062)"><path d="M25.067087,43.2655841 L50.7902347,68.8921997 L67.027101,52.7194513 C69.8894502,49.8633591 74.5452006,49.8633591 77.4126159,52.7194513 C80.2800312,55.5755435 80.2800312,60.2078628 77.4126159,63.0639549 L55.9829921,84.4089554 C53.128242,87.2499093 48.4268966,87.2246787 45.5974772,84.4089554 L14.6866381,53.6151339 L14.6866381,71.9223825 C14.6866381,75.9416006 11.3784716,79.2392267 7.340786,79.2392267 C3.28790207,79.2392267 0,75.9592619 0,71.9223825 L0,14.6087858 C0,10.5719063 3.28790207,7.29194172 7.3458521,7.29194172 C11.398736,7.29194172 14.6866381,10.5719063 14.6866381,14.6087858 L14.6866381,32.9160342 L45.5974772,2.12221293 C48.4268966,-0.693510523 53.128242,-0.72126407 55.9829921,2.12221293 L77.4126159,23.4672133 C80.2800312,26.3182594 80.2800312,30.9531018 77.4126159,33.8117171 C74.5452006,36.6627631 69.8894502,36.6678092 67.027101,33.8117171 L50.7902347,17.6389685 L25.067087,43.2655841 Z M50.8028998,35.943694 C54.86085,35.943694 58.1487519,39.2236585 58.1487519,43.2655841 C58.1487519,47.3075099 54.86085,50.5874744 50.8028998,50.5874744 C46.7424169,50.5874744 43.4494486,47.3075099 43.4494486,43.2655841 C43.4494486,39.2236585 46.7424169,35.943694 50.8003668,35.943694 L50.8028998,35.943694 Z M110.451219,11.3994666 C107.963761,11.3994666 105.899324,13.4532291 105.899324,15.9308639 L105.899324,70.6003045 C105.899324,73.0855084 107.951096,75.1342248 110.433488,75.1342248 C112.915879,75.1342248 114.967651,73.0905546 114.967651,70.6179659 L114.967651,15.9409561 C114.967651,13.450706 112.890548,11.3994666 110.408157,11.3994666 L110.451219,11.3994666 Z M145.812631,12.7164986 C144.059759,10.9655021 141.139149,10.9655021 139.378678,12.7164986 L119.023068,32.996772 C117.510836,34.5030327 117.71348,36.8418996 118.384739,37.9974565 L138.649159,72.866003 C139.87009,74.9752726 142.727373,75.7801254 144.86527,74.5312158 C147.003166,73.2747371 147.77828,70.481721 146.537084,68.3446979 L128.157256,36.7157471 L145.817697,19.1300909 C147.580702,17.3690022 147.580702,14.4750642 145.817697,12.7164986 L145.812631,12.7164986 Z M158.239787,29.8152063 C155.752329,29.8152063 153.687891,31.8588765 153.687891,34.3314652 L153.687891,58.2499763 C153.687891,67.5600296 161.276916,75.1291786 170.628946,75.1291786 L184.89763,75.1291786 C187.374956,75.1291786 189.446993,73.0602778 189.446993,70.5876891 L189.446993,34.3339882 C189.446993,31.8462613 187.39522,29.807637 184.89763,29.807637 C182.410173,29.807637 180.345735,31.8588765 180.345735,34.3339882 L180.345735,66.0588151 L170.618814,66.0588151 C166.287294,66.0588151 162.766351,62.5618682 162.766351,58.2499763 L162.766351,34.3314652 C162.766351,31.8336461 160.714579,29.7899757 158.206857,29.7899757 L158.239787,29.8152063 Z M237.032916,15.9132025 C237.032916,13.4153833 234.968478,11.3717131 232.481021,11.3717131 L215.230933,11.3717131 C205.88397,11.3717131 198.310143,18.9156316 198.310143,28.225685 L198.310143,58.2247456 C198.310143,67.534799 205.909301,75.1039482 215.256264,75.1039482 L232.531682,75.1039482 C235.039404,75.1039482 237.091176,73.0350475 237.091176,70.5624588 C237.091176,68.0898701 235.039404,66.0209693 232.531682,66.0209693 L215.253731,66.0209693 C210.922211,66.0209693 207.413934,62.5139303 207.413934,58.1995153 L207.413934,28.2534384 C207.413934,23.9390236 210.924744,20.4445997 215.253731,20.4445997 L232.503818,20.4445997 C234.991276,20.4445997 237.050647,18.3933604 237.050647,15.9106795 L237.032916,15.9132025 Z M290.176356,11.3717131 C287.681298,11.3717131 285.626994,13.4153833 285.626994,15.887972 C285.626994,18.3605607 287.683832,20.4042309 290.178889,20.4042309 C292.66128,20.4042309 294.713054,18.3605607 294.713054,15.8627415 C294.713054,13.3649223 292.66128,11.3212521 290.153559,11.3212521 L290.176356,11.3717131 Z M290.176356,29.7899757 C287.681298,29.7899757 285.626994,31.8336461 285.626994,34.3062348 L285.626994,70.5624588 C285.626994,73.0350475 287.683832,75.0787176 290.178889,75.0787176 C292.66128,75.0787176 294.713054,73.0350475 294.713054,70.5372281 L294.713054,34.3592189 C294.713054,31.8765378 292.66128,29.8278215 290.153559,29.8278215 L290.176356,29.7899757 Z M333.243315,75.1039482 C335.730772,75.1039482 337.79521,73.0350475 337.79521,70.5624588 L337.79521,46.6691783 C337.79521,37.3338943 330.208717,29.7899757 320.854155,29.7899757 L306.567739,29.7899757 C304.085349,29.7899757 302.008244,31.8588765 302.008244,34.3062348 L302.008244,70.5624588 C302.008244,73.0350475 304.060016,75.0787176 306.542409,75.0787176 C309.0248,75.0787176 311.076571,73.0098168 311.076571,70.5372281 L311.076571,38.8754777 L320.778162,38.8754777 C325.099551,38.8754777 328.61036,42.3724246 328.61036,46.6843165 L328.61036,70.5977815 C328.61036,73.0779391 330.662134,75.1291786 333.154658,75.1291786 L333.243315,75.1039482 Z M243.580857,46.6717014 C243.580857,37.3868783 251.119221,29.800068 260.425655,29.800068 L261.55793,29.800068 C270.828902,29.800068 278.32167,37.4070628 278.32167,46.6641321 L278.32167,58.2449301 C278.32167,67.5045225 270.828902,75.0989021 261.55793,75.1115172 L260.425655,75.1115172 C251.116687,75.1190865 243.580857,67.5247069 243.580857,58.2398842 L243.580857,46.6590859 L243.580857,46.6717014 Z M269.215347,46.6717014 C269.215347,42.3648553 265.719735,38.8628625 261.395814,38.8628625 L260.50418,38.8628625 C256.182792,38.8628625 252.682114,42.3699015 252.682114,46.6767473 L252.682114,58.2499763 C252.682114,62.5391607 256.182792,66.0461999 260.50418,66.0461999 L261.395814,66.0461999 C265.717202,66.0461999 269.21788,62.5391607 269.21788,58.2247456 L269.21788,46.6439477 L269.215347,46.6717014 Z" id="Shape"/></g></g></g></svg>
